src/16/actions/kstars_cnames.svg

<svg xmlns="http://www.w3.org/2000/svg" width="16" height="16" viewBox="0 0 16 16">
 <defs>
  <style id="current-color-scheme" type="text/css">
   .ColorScheme-Text { color:#565656; } .ColorScheme-Highlight { color:#5294e2; }
  </style>
 </defs>
 <path style="fill:currentColor" class="ColorScheme-Text" d="M 3.9003906 0 C 1.1389906 0 5.9211895e-16 2.2386 0 5 L 0 11 C 0 13.7614 1.1389906 16 3.9003906 16 C 6.6617906 16 7.5 13.7614 7.5 11 L 7.5 5 C 7.5 2.2386 6.6618106 0 3.9003906 0 z M 3.9003906 1 C 6.1094906 1 6.5 2.7909 6.5 5 L 6.5 11 C 6.5 13.2091 6.1095206 15 3.9003906 15 C 1.6912606 15 1 13.2091 1 11 L 1 5 C 1 2.7909 1.6912406 1 3.9003906 1 z M 15 4 L 15 5 L 16 5 L 16 4 L 15 4 z M 9 7 L 9 16 L 10 16 L 10 10 C 10 8.8954 10.89543 8 12 8 C 13.10457 8 13 8.8954 13 10 L 14 10 C 14 8.3431 13.65685 7 12 7 C 11.26159 7.001 10.5495 7.2742781 10 7.7675781 L 10 7 L 9 7 z M 15 7 L 15 16 L 16 16 L 16 7 L 15 7 z"/>
</svg>

<svg xmlns="http://www.w3.org/2000/svg" width="16" height="16"><defs><style id="current-color-scheme" type="text/css"></style></defs><path d="M3.9 0C1.14 0 0 2.239 0 5v6c0 2.761 1.139 5 3.9 5 2.762 0 3.6-2.239 3.6-5V5c0-2.761-.838-5-3.6-5zm0 1c2.21 0 2.6 1.79 2.6 4v6c0 2.21-.39 4-2.6 4C1.691 15 1 13.21 1 11V5c0-2.21.691-4 2.9-4zM15 4v1h1V4h-1zM9 7v9h1v-6a2 2 0 0 1 2-2c1.105 0 1 .895 1 2h1c0-1.657-.343-3-2-3a3 3 0 0 0-2 .768V7H9zm6 0v9h1V7h-1z" fill="currentColor" color="#565656"/></svg>
